packages/dnb-eufemia/assets/icons/house_2_medium.svg

<svg width="24" height="24" viewBox="0 0 24 24" fill="none" xmlns="http://www.w3.org/2000/svg">
<path d="M3.75 18V21.75C3.75 22.567 4.433 23.25 5.25 23.25H8.75C9.30228 23.25 9.75 22.8023 9.75 22.25V19.25C9.75 18.433 10.433 17.75 11.25 17.75H12.75C13.567 17.75 14.25 18.433 14.25 19.25V22.25C14.25 22.8023 14.6977 23.25 15.25 23.25H18.75C19.567 23.25 20.25 22.567 20.25 21.75V18M0.75 16.5L10.939 6.311C11.0783 6.17161 11.2437 6.06104 11.4258 5.98559C11.6078 5.91015 11.8029 5.87132 12 5.87132C12.1971 5.87132 12.3922 5.91015 12.5742 5.98559C12.7563 6.06104 12.9217 6.17161 13.061 6.311L23.25 16.5M16.5 9.75V8.25H20.25V13.5M17.122 0.75L16.715 1.293C16.5516 1.50689 16.477 1.77559 16.5068 2.04311C16.5366 2.31062 16.6685 2.55632 16.875 2.729C17.0815 2.90168 17.2134 3.14738 17.2432 3.41489C17.273 3.68241 17.1984 3.95111 17.035 4.165L16.628 4.708M20.872 0.75L20.465 1.293C20.3016 1.50689 20.227 1.77559 20.2568 2.04311C20.2866 2.31062 20.4185 2.55632 20.625 2.729C20.8315 2.90168 20.9634 3.14738 20.9932 3.41489C21.023 3.68241 20.9484 3.95111 20.785 4.165L20.378 4.708" stroke="black" stroke-width="1.5" stroke-linecap="round" stroke-linejoin="round"/>
</svg>

<svg width="24" height="24" viewBox="0 0 24 24" fill="none" xmlns="http://www.w3.org/2000/svg"><path d="M3.75 18v3.75c0 .817.683 1.5 1.5 1.5h3.5a1 1 0 0 0 1-1v-3c0-.817.683-1.5 1.5-1.5h1.5c.817 0 1.5.683 1.5 1.5v3a1 1 0 0 0 1 1h3.5c.817 0 1.5-.683 1.5-1.5V18M.75 16.5 10.939 6.311a1.5 1.5 0 0 1 2.122 0L23.25 16.5M16.5 9.75v-1.5h3.75v5.25M17.122.75l-.407.543a1.045 1.045 0 0 0 .16 1.436 1.045 1.045 0 0 1 .16 1.436l-.407.543M20.872.75l-.407.543a1.045 1.045 0 0 0 .16 1.436 1.045 1.045 0 0 1 .16 1.436l-.407.543" stroke="#000" stroke-width="1.5" stroke-linecap="round" stroke-linejoin="round"/></svg>
